X: 3
T: Ghoid Iad Mo Bhean Uam An Raoir
Z: ceolachan
S: https://thesession.org/tunes/5335#setting17543
R: strathspey
M: 4/4
L: 1/8
K: Amin
|: e>dc>d c>A A2 |c>AG>A G>E E2 ||: A*AA>G A*A A2 |G>ED>E C>D E2 |2 e>dc>d c>A A2 | G>DE>G A2 A2 ||
